X:1
T: The Major
C:
R:Jig
Q:180
K:A
M:6/8
L:1/16
|:d2|c2B2A2 A2c2A2|A2c2A2 B2c2d2|c2B2A2 e2c2A2|d2B2G2 B2c2d2|
c2B2A2 A2c2A2|A2c2A2 B2c2d2|c2B2A2 e2c2A2|d2B2G2 B2c2d2|
c4e2 e2c2a2|f2d2f2 e2c2e2|c4e2 e2c2e2|f2g2a2 B2c2d2|
c4e2 e2c2a2|f2d2f2 e2c2e2|c4e2 e2c2e2|f2g2a2 a4:|
